packages/foundations/assets/icons/functional/images/file/image_28.svg

<svg width="28" height="28" viewBox="0 0 28 28" fill="none" xmlns="http://www.w3.org/2000/svg">
<g clip-path="url(#clip0_185_956)">
<path fill-rule="evenodd" clip-rule="evenodd" d="M22.7499 2.62488C24.1478 2.62488 25.3845 3.85435 25.375 5.24998V22.75C25.375 24.148 24.1172 25.3774 22.7499 25.3751H5.24988C3.85191 25.3751 2.62772 24.136 2.62488 22.75V5.24998C2.62488 3.85201 3.8593 2.63608 5.24988 2.62488H22.7499ZM19.2989 15.2871L14.6642 20.6944C14.4267 20.9716 14.0454 21.0694 13.7082 20.95L8.74988 18.5001L4.37488 21.1444V22.75C4.37488 23.1987 4.80537 23.6298 5.24988 23.6251H22.7499C23.1986 23.6251 23.6277 23.1497 23.625 22.75V19.6124L19.2989 15.2871ZM5.24988 4.37492C4.78693 4.37227 4.3781 4.81525 4.37484 5.24998V19.1047L8.29969 16.7497C8.52416 16.615 8.92047 16.6081 9.14363 16.7475L13.7794 19.0365L18.5855 13.4305C18.8935 13.0712 19.4251 13.026 19.788 13.3099L23.6249 17.1369V5.24998C23.6249 4.80125 23.2102 4.38591 22.7499 4.37492H5.24988ZM9.62488 6.12498C11.558 6.12498 13.1249 7.692 13.1249 9.62498C13.1249 11.558 11.558 13.125 9.62488 13.125C7.6918 13.125 6.12488 11.558 6.12488 9.62498C6.12488 7.692 7.6918 6.12498 9.62488 6.12498ZM9.62488 7.87498C8.65832 7.87498 7.87488 8.65847 7.87488 9.62498C7.87488 10.5915 8.65832 11.375 9.62488 11.375C10.5914 11.375 11.3749 10.5915 11.3749 9.62498C11.3749 8.65847 10.5914 7.87498 9.62488 7.87498Z" fill="#1A1C1F"/>
</g>
<defs>
<clipPath id="clip0_185_956">
<rect width="28" height="28" fill="white"/>
</clipPath>
</defs>
</svg>

<svg xmlns="http://www.w3.org/2000/svg" width="28" height="28" fill="none"><g clip-path="url(#a)"><path fill="#1A1C1F" fill-rule="evenodd" d="M22.75 2.625c1.398 0 2.634 1.23 2.625 2.625v17.5c0 1.398-1.258 2.627-2.625 2.625H5.25c-1.398 0-2.622-1.239-2.625-2.625V5.25c0-1.398 1.234-2.614 2.625-2.625zm-3.451 12.662-4.635 5.407a.875.875 0 0 1-.956.256L8.75 18.5l-4.375 2.644v1.606c0 .449.43.88.875.875h17.5c.449 0 .878-.475.875-.875v-3.138zM5.249 4.375c-.462-.003-.87.44-.874.875v13.855L8.3 16.75c.224-.135.62-.142.844-.003l4.635 2.29 4.807-5.606a.875.875 0 0 1 1.202-.121l3.837 3.827V5.25c0-.449-.415-.864-.875-.875zm4.376 1.75a3.5 3.5 0 1 1 0 7 3.5 3.5 0 0 1 0-7m0 1.75a1.75 1.75 0 1 0 0 3.5 1.75 1.75 0 0 0 0-3.5" clip-rule="evenodd"/></g><defs><clipPath id="a"><path fill="#fff" d="M0 0h28v28H0z"/></clipPath></defs></svg>
